src/components/Footer/images/logo-15.svg

<svg width="470" height="262" viewBox="0 0 470 262" fill="none" xmlns="http://www.w3.org/2000/svg">
<path d="M335.834 143.48C336.927 148.546 339.808 150.334 345.769 150.334C351.034 150.334 353.915 148.447 353.915 145.467C353.915 141.195 350.04 140.897 341.994 138.811C332.556 136.327 326.496 134.241 323.714 132.254C318.449 128.578 315.965 123.313 315.965 116.657C315.965 103.544 326.297 95 344.278 95C361.763 95 371.995 102.649 373.188 116.359H352.623C351.928 112.286 349.146 110.398 343.881 110.398C339.311 110.398 337.026 111.888 337.026 114.968C337.026 118.544 340.503 119.24 347.06 120.929C355.504 123.114 362.16 124.406 366.432 127.386C372.393 131.36 375.075 136.228 375.075 143.182C375.075 157.885 364.545 166.528 344.874 166.528C326.695 166.528 316.065 157.984 314.674 143.48H335.834ZM255.962 138.314C254.77 156.096 243.047 166.528 223.576 166.528C201.919 166.528 188.805 152.818 188.805 130.764C188.805 108.61 202.117 95 223.178 95C242.848 95 254.372 104.934 255.664 122.518H235C234.404 115.664 230.53 111.988 223.476 111.988C214.933 111.988 210.76 118.246 210.76 130.764C210.76 143.082 215.33 149.44 224.172 149.44C230.728 149.44 234.901 145.467 235.596 138.215H255.962V138.314ZM251.293 96.9869H273.446L284.871 140.698L297.09 96.9869H318.449L295.699 164.739H274.042L251.293 96.9869ZM119.165 95.0993C116.582 95.0993 114 96.0928 112.112 98.0797L97.9058 112.286C94.0314 116.16 94.0314 122.518 97.9058 126.492L138.041 166.528L178.076 126.393C181.951 122.518 181.951 116.16 178.076 112.186L163.87 98.0797C161.883 96.0928 159.3 95.0993 156.817 95.0993C154.234 95.0993 151.651 96.0928 149.664 98.0797L138.041 109.802L126.318 98.0797C124.331 96.0928 121.748 95.0993 119.165 95.0993Z" fill="white"/>
</svg>

<svg xmlns="http://www.w3.org/2000/svg" width="470" height="262" fill="none" viewBox="0 0 470 262"><path fill="#fff" d="M335.834 143.48c1.093 5.066 3.974 6.854 9.935 6.854 5.265 0 8.146-1.887 8.146-4.867 0-4.272-3.875-4.57-11.921-6.656-9.438-2.484-15.498-4.57-18.28-6.557-5.265-3.676-7.749-8.941-7.749-15.597 0-13.113 10.332-21.657 28.313-21.657 17.485 0 27.717 7.649 28.91 21.359h-20.565c-.695-4.073-3.477-5.961-8.742-5.961-4.57 0-6.855 1.49-6.855 4.57 0 3.576 3.477 4.272 10.034 5.961 8.444 2.185 15.1 3.477 19.372 6.457 5.961 3.974 8.643 8.842 8.643 15.796 0 14.703-10.53 23.346-30.201 23.346-18.179 0-28.809-8.544-30.2-23.048zm-79.872-5.166c-1.192 17.782-12.915 28.214-32.386 28.214-21.657 0-34.771-13.71-34.771-35.764 0-22.154 13.312-35.764 34.373-35.764 19.67 0 31.194 9.934 32.486 27.518H235c-.596-6.854-4.47-10.53-11.524-10.53-8.543 0-12.716 6.258-12.716 18.776 0 12.318 4.57 18.676 13.412 18.676 6.556 0 10.729-3.973 11.424-11.225h20.366zm-4.669-41.327h22.153l11.425 43.711 12.219-43.711h21.359l-22.75 67.752h-21.657zm-132.128-1.888c-2.583 0-5.165.994-7.053 2.98l-14.206 14.207c-3.875 3.874-3.875 10.232 0 14.206l40.135 40.036 40.035-40.135c3.875-3.875 3.875-10.233 0-14.207L163.87 98.08c-1.987-1.987-4.57-2.98-7.053-2.98-2.583 0-5.166.993-7.153 2.98l-11.623 11.722-11.723-11.722a10.08 10.08 0 0 0-7.153-2.98"/></svg>
